X:240
T:Gloucester Hornpipe
R:
M:4/4
K:G
(3DEF | G2 g2 g2 d>B | c>Bc>d e>fg>e | d>BG>B e>dc>B | A>Bc>A G>FE>D |
G2 g2 g2 d>B | c>Bc>d e>fg>e | d>BG>B e>cA>F | G2 G2 G2 :||
z2 | B2 B>A B>c d2 | e2 e>d e>fg>e | d>BG>B e>dc>B | A>Bc>A G>FE>D |
B2 B>A B>c d2 | e2 e>d e>fg>e | d>BG>B e>cA>F | G2 G2 G2 :||
